X:8
T:Maggie's weam is fu I true
Z:Jack Campin <http://www.campin.me.uk/>
S:NLS MS Adv.5.2.22
N:last bar 1st part is |fdeg d/d/d d:| in score, this way in marginal note
M:4/4
L:1/8
K:D
B|ADFD ADFB|ADFA E/E/E GB|ADFD ABde|fdef d/d/d d:|
A|defd geaf|gefd e/e/e eB|defd eBdA|BAdF D/D/D D:|
